X: 08099
T: ROSSI'S REEL #2
C: Bob McQuillen 27 Mar 91
B: Bob's Note Book 8 #99
%R: reel
Z: 2021 John Chambers <jc:trillian.mit.edu>
M: C
L: 1/8
K: F
|:f2f2 fcAc | dcdf cAFA | cAcf dcAc | agfa g2ag |\
| f2f2 fcAc | dcdf cAFA | cAcf dcAc | dffe f4 :|
|:a2a2 fgaf | gfdf cdfg | a2fa gfdf | cfaf g2fg |\
| a2a2 fgaf | gfdf cdfa | gfdf afdf | cAGA F2 :|
%%begintext align
%% Well, first
%% there was Neil Rossi, then there was Rossi
%% #2, who turns out to be Donna Laiserowitz
%% and who is always nice to me whenever we get
%% together, all of which results in there being 2 Rossi's
%% Reels, and that's the story!
%%endtext
